lib/brands/icons/w3c.svg

<svg xmlns="http://www.w3.org/2000/svg" fill="none" aria-hidden="true" viewBox="0 0 48 48"><g id="w3c-Icon"><g id="Group"><path id="Vector" fill="#005A9C" d="M14.6043 13.4556L18.4004 26.3639L22.1981 13.4556H24.9459L18.6616 34.663H18.4001L14.4725 21.5208L10.5451 34.663H10.2833L4 13.4556H6.74935L10.5451 26.3639L13.1113 17.6721L11.8547 13.4559H14.6043V13.4556Z"/><path id="Vector_2" fill="#005A9C" d="M32.7505 27.8554C32.7505 29.7764 32.2394 31.3909 31.2204 32.7001C30.1982 34.0087 28.8758 34.663 27.2528 34.663C26.031 34.663 24.967 34.2734 24.059 33.4979C23.1511 32.7205 22.4792 31.6688 22.043 30.3438L24.1893 29.4535C24.5044 30.2566 24.9185 30.8892 25.4334 31.3506C25.9483 31.8129 26.5538 32.0452 27.2528 32.0452C27.9857 32.0452 28.606 31.6342 29.1124 30.8143C29.6188 29.9942 29.8712 29.0085 29.8712 27.8557C29.8712 26.5814 29.6002 25.5963 29.0586 24.8977C28.4307 24.0782 27.4444 23.6665 26.1012 23.6665H25.0542V22.4105L28.7193 16.0743H24.2938L23.063 18.1687H22.2784V13.4556H32.4881V14.738L28.6139 21.4153C29.9747 21.8512 31.0045 22.6462 31.7028 23.7981C32.4015 24.9496 32.7505 26.301 32.7505 27.8554Z"/><path id="Vector_3" fill="#221B0A" d="M43.4053 13.3369L43.8503 16.0435L42.2743 19.0594C42.2743 19.0594 41.6687 17.7804 40.6639 17.0723C39.8163 16.4746 39.2643 16.3456 38.4023 16.5228C37.2923 16.7525 36.0369 18.0768 35.4887 19.7108C34.8328 21.6652 34.8265 22.6119 34.8032 23.4805C34.767 24.8741 34.9858 25.697 34.9858 25.697C34.9858 25.697 34.029 23.9265 34.0382 21.3332C34.0438 19.482 34.3362 17.8027 35.1919 16.147C35.946 14.6908 37.0645 13.8169 38.0586 13.7149C39.0859 13.6069 39.8991 14.1017 40.5263 14.6395C41.1838 15.2022 41.8522 16.4328 41.8522 16.4328L43.4053 13.3369Z"/><path id="Vector_4" fill="#221B0A" d="M43.5987 28.6553C43.5987 28.6553 42.9038 29.9007 42.4692 30.38C42.0352 30.8596 41.2578 31.7046 40.2989 32.1282C39.3393 32.5509 38.8367 32.6311 37.8879 32.5392C36.9406 32.448 36.0603 31.8997 35.7522 31.6694C35.4441 31.4421 34.6551 30.768 34.2111 30.1417C33.7642 29.5123 33.0674 28.255 33.0674 28.255C33.0674 28.255 33.4554 29.5142 33.699 30.0486C33.8381 30.356 34.2687 31.2964 34.8789 32.1169C35.4469 32.8801 36.5516 34.1953 38.2312 34.4914C39.9106 34.7888 41.0643 34.0354 41.3491 33.8522C41.6346 33.6703 42.2363 33.1668 42.618 32.7586C43.0158 32.3334 43.3919 31.7896 43.5987 31.4657C43.752 31.2272 44.0003 30.7463 44.0003 30.7463L43.5987 28.6553Z"/></g></g></svg>

<svg xmlns="http://www.w3.org/2000/svg" fill="none" aria-hidden="true" viewBox="0 0 48 48"><path fill="#005A9C" d="M14.604 13.456 18.4 26.364l3.798-12.908h2.748l-6.284 21.207H18.4l-3.927-13.142-3.928 13.142h-.262L4 13.456h2.75l3.795 12.908 2.566-8.692-1.256-4.216h2.75Z"/><path fill="#005A9C" d="M32.75 27.855c0 1.921-.51 3.536-1.53 4.845-1.022 1.309-2.344 1.963-3.967 1.963-1.222 0-2.286-.39-3.194-1.165-.908-.777-1.58-1.83-2.016-3.154l2.147-.89c.315.803.729 1.435 1.244 1.897.514.462 1.12.694 1.819.694.733 0 1.353-.41 1.86-1.23.506-.82.758-1.806.758-2.96 0-1.274-.27-2.259-.812-2.957-.628-.82-1.614-1.232-2.957-1.232h-1.048V22.41l3.666-6.336h-4.426l-1.23 2.095h-.785v-4.713h10.21v1.282l-3.875 6.677c1.361.436 2.39 1.231 3.09 2.383.698 1.152 1.047 2.503 1.047 4.057Z"/><path fill="#221B0A" d="m43.406 13.337.445 2.707-1.576 3.015s-.606-1.279-1.61-1.987c-.848-.597-1.4-.726-2.262-.55-1.11.23-2.366 1.555-2.914 3.189-.656 1.954-.662 2.9-.685 3.77-.037 1.393.182 2.216.182 2.216s-.956-1.77-.947-4.364c.005-1.851.298-3.53 1.153-5.186.754-1.456 1.873-2.33 2.867-2.432 1.027-.108 1.84.387 2.468.925.657.562 1.326 1.793 1.326 1.793l1.553-3.096Zm.193 15.318s-.695 1.246-1.13 1.725c-.434.48-1.211 1.325-2.17 1.748-.96.423-1.462.503-2.411.411-.948-.091-1.828-.64-2.136-.87-.308-.227-1.097-.901-1.541-1.527-.447-.63-1.144-1.887-1.144-1.887s.388 1.26.632 1.794c.139.307.57 1.247 1.18 2.068.568.763 1.672 2.078 3.352 2.374 1.68.298 2.833-.456 3.118-.639.285-.182.887-.685 1.269-1.093a9.6 9.6 0 0 0 .98-1.293c.154-.239.402-.72.402-.72l-.401-2.09Z"/></svg>
